!!!!SEGMENT: pl-cz--iii-50--003_brykner-jerzy--vesperae-beatus-vir.krn
!!!cenid: 17xx:845
!!!COM: Brykner, Jerzy
!!!COM-rismID: pe30025739
!!!CDT: 1705-1760
!!!CNT: Polish
!!!OPR: Vesperae
!!!OTL: Beatus vir
!!!OMV: 003
!!!PDT:
!!!AGN: Sacred; Vespers
!!!SMS-siglum: PL-CZ
!!!SMS-shelfmark: III-50
!!!SMS-shelfwork: 001-003 M
!!!SMS-variant:
!!!SMS-altvar:
!!!NIFC-rismSourceID: 300033583
!!!NIFC-rismChildID: 300033583
!!!NIFC-islandoraID: pl-cz:38729
!!!URL-pdf-islandora: https://repozytorium.nifc.pl/islandora/object/pl-cz%3A38729/datastream/PDF/view
!!!URL-scan: https://polish.musicsources.pl/pl/lokalizacje/galeria/rekopisy/6940/1 @EN{Scan on Polish Music Sources Website} @PL{Skany w portalu Dziedzictwo Muzyki Polskiej w otwartym dostępie}
!!!ONB-nifc: UWAGA: części Vesperae: Dixit Dominus, Confitebor, Beatus vir, Laudate pueri, Laudate Dominum, In exitu, Laetatus sum, Nisi Dominus, Lauda Jerusalem, Credidi, In convertendo, Domine probasti me, Memento Domine David, Confitebor, De profundis, Beati omnes, Magnificat
!!!AIN: 3 empty 1 organ 2 violn 1 vox
!!!key:
**kern	**fba	**kern	**kern	**kern	**text	**kern	**text	**kern	**kern
*part7	*	*part6	*part5	*part4	*part4	*part3	*part3	*part2	*part1
*staff7	*	*staff6	*staff5	*staff4	*staff4	*staff3	*staff3	*staff2	*staff1
*Iorgan	*	*Ivioln	*Ivioln	*Iempty	*	*Ivox	*	*Iempty	*Iempty
*I"Organo.	*	*I"Violino Secundo.	*I"Violino Primo.	*I"Baſso.	*	*I"Canto.	*	*I"Clarino Secundo.	*I"Clarino Primo.
*I'org	*	*I'vl 2	*I'vl 1	*I'B	*	*I'C	*	*I'cl 2	*I'cl 1
*clefF4	*	*clefG2	*clefG2	*clefF4	*	*clefC1	*	*clefG2	*clefG2
*k[f#]	*	*k[f#]	*k[f#]	*k[f#]	*	*k[f#]	*	*k[f#]	*k[f#]
*e:	*	*e:	*e:	*e:	*	*e:	*	*e:	*e:
*M3/4	*	*M3/4	*M3/4	*M3/4	*	*M3/4	*	*M3/4	*M3/4
=1	=1	=1	=1	=1	=1	=1	=1	=1	=1
!LO:TX:a:t=Tutti.	!	!LO:TX:a:t=P:all\right:problem	!	!	!	!	!	!	!
!LO:TX:b:t=Beatus vir.	!	!LO:TX:b:t=Beatus vir	!LO:TX:b:t=Beatus vir.	!	!	!	!	!	!
!	!	!	!	!	!	!	!	!LO:TX:a:t=P:problem=brak partii w nutach	!LO:TX:a:t=P:problem=brak partii w nutach
4E\	.	8r	8r	4E\	Be-	4b\	Be-	2.ryy	2.ryy
.	.	8b\L	16gg\LL	.	.	.	.	.	.
.	.	.	16aa\JJ	.	.	.	.	.	.
4G\	6	8b\	8bb\L	4G\	-a-	4ee\	-a-	.	.
.	.	8ee\J	8ee\J	.	.	.	.	.	.
4B\	.	4dd#X\	4ff#\	4B\	-tus	4dd#X\	-tus	.	.
=2	=2	=2	=2	=2	=2	=2	=2	=2	=2
!	!	!LO:TX:a:t=P:problem=mixed beam	!	!	!	!	!	!	!
4E\	.	8ee\L	4ee\	4E\	vir	8ee\	vir,	2.ryy	2.ryy
.	.	8e/J	.	.	.	8e/	qvi	.	.
8r	.	4.cc\	8r	8r	.	4.cc\	ti-	.	.
8A\L	.	.	8ee\L	8A\	qvi	.	.	.	.
8D\	7	.	8ff#\	8D\	ti-	.	.	.	.
8G\J	.	8b/	8gg\J	8G\	-met	8b\	-met	.	.
=3	=3	=3	=3	=3	=3	=3	=3	=3	=3
4C/	7:6	8b/L	4ee\	8.C/	Do-	8.b\	Do-	2.ryy	2.ryy
.	.	8a/J	.	.	.	.	.	.	.
.	.	.	.	16C/	-mi-	16a\	-mi-	.	.
!LO:TX:a:t=P:problem=mixed beam	!	!	!	!	!	!	!	!	!
8BB/L	#	8b/L	16dd#X\LL	8BB/	-nu(m)	8b\	-nu(m)	.	.
.	.	.	16b\	.	.	.	.	.	.
8B\	.	8b/	16cc\	16B\	in	16b\	in	.	.
.	.	.	16dd#\JJ	16A\	man-	16b\	man-	.	.
8G\	6	8b/	8ee\L	8G\	-da-	8b\	-da-	.	.
8E\J	.	8b/J	8ee\J	8E\	-tis	8b\	-tis	.	.
=4	=4	=4	=4	=4	=4	=4	=4	=4	=4
4c\	7:6	8b/L	16ee\LL	8c\	e-	8b\	e-	2.ryy	2.ryy
.	.	.	16ff#\	.	.	.	.	.	.
.	.	8a/	16gg\	8c\	-jus	8a\	-jus	.	.
.	.	.	16aa\JJ	.	.	.	.	.	.
8B\L	#	8a/	8dd#X\L	8B\	vo-	8a\	vo-	.	.
8E\J	.	8g/J	8ee\J	8E\	-let	8g\	-let	.	.
!	!	!	!LO:TX:a:t=P:problem=mixed beam	!	!	!	!	!	!
4BB/	#4r	4f#/	8f#/L	4BB/	ni-	4f#/	ni-	.	.
.	.	.	8dd#X\J	.	.	.	.	.	.
=5	=5	=5	=5	=5	=5	=5	=5	=5	=5
!LO:TX:a:t=Solo	!	!	!	!	!	!	!	!	!
4E\	.	4e/	4ee\	8E\	-mis,	4e/	-mis,	2.ryy	2.ryy
.	.	.	.	16G\L	po-	.	.	.	.
.	.	.	.	16A\J	.	.	.	.	.
4D#X\	6	4r	4r	8B\,	-tens	8f#/	glo-	.	.
.	.	.	.	8F#\	in	16f#/	-ri-	.	.
.	.	.	.	.	.	16f#/	-a,	.	.
!	!	!	!	!LO:LB:g=original	!	!LO:LB:g=original	!	!	!
4E\	.	4r	4r	8G\	ter-	8b\	et	.	.
.	.	.	.	16F#\L	-ra	16a\LL	di-	.	.
.	.	.	.	16E\J	.	16g\JJ	.	.	.
=6	=6	=6	=6	=6	=6	=6	=6	=6	=6
!LO:TX:a:t=P:problem=mixed beam	!	!	!	!	!	!	!	!	!
!	!	!LO:N:vis=0	!LO:N:vis=0	!	!	!	!	!	!
8A\L	.	1.r	1.r	8c\	e-	16a\	-vi-	2.ryy	2.ryy
.	.	.	.	.	.	16a\	-ti-	.	.
8F#\	6 5	.	.	16B\LL	-rit	16dd\	-ae	.	.
.	.	.	.	16A\JJ	.	16cc\	in	.	.
8G\	.	.	.	8B\	Se-	8b\	do-	.	.
8C/J	.	.	.	16A\LL	-men	8ee\	-mo	.	.
.	.	.	.	16G\JJ	.	.	.	.	.
4D/	.	.	.	4F#\	e-	4a\	e-	.	.
=7	=7	=7	=7	=7	=7	=7	=7	=7	=7
4G\	.	.	.	8G,\	-jus	8g\	-jus,	2.ryy	2.ryy
.	.	.	.	16G\	ge-	16b\	et	.	.
.	.	.	.	16F#\	-ne-	16a\	Jus-	.	.
4E\	.	.	.	8G\	-ra-	8b\	-ti-	.	.
.	.	.	.	16E\LL	-ti-	16g\	-ti-	.	.
.	.	.	.	16F#\JJ	.	16a\	-a	.	.
4E\	.	.	.	8G\	-o	8b\	E-	.	.
.	.	.	.	16F#\LL	re-	16a\LL	-jus	.	.
.	.	.	.	16G\JJ	.	16g\JJ	.	.	.
=8	=8	=8	=8	=8	=8	=8	=8	=8	=8
4F#\	6\	2.r	2.r	8A\	-cto-	8f#/	ma-	2.ryy	2.ryy
.	.	.	.	16G\	-rum	16g/	-net	.	.
.	.	.	.	16A\	be-	16f#/	in	.	.
8G\L	6	.	.	8B\	-ne-	8e/	Sae-	.	.
8A\J	.	.	.	8c\	-di-	16f#/	-cu-	.	.
.	.	.	.	.	.	16f#/	-lu(m)	.	.
*custos:E	*	*	*	*	*	*	*	*	*
4B\	#4r	.	.	4BB/	-ce-	8.f#/	Sae-	.	.
.	.	.	.	.	.	16e/	-cu-	.	.
!LO:LB:g=original	!	!	!LO:LB:g=original	!	!	!LO:LB:g=original	!	!	!
=9	=9	=9	=9	=9	=9	=9	=9	=9	=9
4E\	.	8ree	8r	4E\	-tur.	8e/	-li.	2.ryy	2.ryy
.	.	4g/	4b\	.	.	8b\	Ex-	.	.
4E\	#	.	.	4r	.	8b\	-or-	.	.
.	.	8e/	16ee\LL	.	.	16ee\LL	-tum	.	.
.	.	.	16cc#X\JJ	.	.	16cc#X\JJ	.	.	.
4E\	7 2	4c#X/	4a#X/	4r	.	8.a#X\	est	.	.
.	.	.	.	.	.	16a#\	in	.	.
=10	=10	=10	=10	=10	=10	=10	=10	=10	=10
!LO:TX:a:t=P:problem=mixed beam	!	!	!	!LO:TX:a:t=2	!	!	!	!	!
!	!	!	!	!LO:N:vis=0	!	!	!	!	!
8D/L	6	8d/L	8b\L	1.r	.	8b\	te-	2.ryy	2.ryy
8C#X/	.	8a#X/	8cc#X\	.	.	16cc#X\	-ne-	.	.
.	.	.	.	.	.	16cc#\	-bris	.	.
8BB/	.	8b/	8dd\	.	.	8dd\	lu-	.	.
8F#\J	#	8a#/J	8cc#\J	.	.	8cc#X\	-men	.	.
4E#X\	7 5	4b/	4dd\	.	.	4dd\	re-	.	.
=11	=11	=11	=11	=11	=11	=11	=11	=11	=11
4F#\	#	4a#X/	16cc#X\LL	.	.	16cc#X,\	-ctis	2.ryy	2.ryy
.	.	.	16cc#\	.	.	16cc#\	mi-	.	.
.	.	.	16b\	.	.	16b\	-se-	.	.
.	.	.	16cc#\JJ	.	.	16cc#\	-ri-	.	.
8r	.	16r	4dd\	.	.	4dd\	-cors,	.	.
.	.	16f#/LL	.	.	.	.	.	.	.
!LO:TX:a:t=P:problem=mixed beam	!	!	!	!	!	!	!	!	!
8B\L	5	16e/	.	.	.	.	.	.	.
.	.	16f#/JJ	.	.	.	.	.	.	.
8B\	6	8g/L	16r	.	.	16rb	.	.	.
.	.	.	16dd\LL	.	.	16dd\	et	.	.
8BB/J	.	8b/J	16cc#X\	.	.	16cc#X\	mi-	.	.
.	.	.	16dd\JJ	.	.	16dd\	-se-	.	.
!	!	!LO:LB:g=original	!	!LO:LB:g=original	!	!	!	!	!
=12	=12	=12	=12	=12	=12	=12	=12	=12	=12
8G\L	6	8b/L	8ee\L	4r	.	8ee\	-ra-	2.ryy	2.ryy
8E\J	.	8g/J	16b\L	.	.	16b\	-tor,	.	.
.	.	.	16gg\JJ	.	.	16cc#X\	et	.	.
!	!	!	!	!	!	!LO:LB:g=original	!	!	!
4F#\	#4r	4c#X/	4a#X/	4r	.	4a#X\	Juſ-	.	.
!LO:TX:a:t=P:problem=mixed beam	!	!LO:TX:a:t=P:problem=mixed beam	!LO:TX:a:t=P:problem=mixed beam	!	!	!	!	!	!
8BB/L	.	8d/L	8b/L	8r	.	8b\	-t(us).	.	.
!LO:TX:a:t=T.	!	!	!	!	!	!	!	!	!
8B\J	.	8dd\J	8ff#\J	8B\	Ju-	8dd\	Ju-	.	.
=13	=13	=13	=13	=13	=13	=13	=13	=13	=13
8A\L	6	8cc#X\L	8ff#\L	8A\	-cun-	8cc#X\	-cun-	2.ryy	2.ryy
8G\	6#	8b\J	8ee\J	8G\	-d(us)	8b\	-d(us)	.	.
8F#\	.	8a#X\L	8ff#\L	8F#\	ho-	8a#X\	ho-	.	.
8E\J	.	16b\L	16gg#X\L	16E\	-mo	16a#\	-mo,	.	.
.	.	16cc#X\JJ	16aa#X\JJ	16E\	qvi	16a#\	qvi	.	.
8D\L	6	8.dd\L	8bb\L	8D\	mi-	8b\	mi-	.	.
16E\L	.	.	8bb\J	16E\LL	-se-	8b\	-se-	.	.
16F#\JJ	.	16cc#\Jk	.	16F#\JJ	.	.	.	.	.
=14	=14	=14	=14	=14	=14	=14	=14	=14	=14
8G\L	.	8b\L	8b\L	8G\	-re-	8b\	-re-	2.ryy	2.ryy
8E\J	.	16cc#X\L	8gg\J	16E\	-tur,	16cc#X\	-tur,	.	.
.	.	16dd\JJ	.	16E\	et	16dd\	et	.	.
!	!	!	!	!	!	!LO:SIC:l:s=com:v	!	!	!
4F#\	#4r	4a#X/	16ff#\LL	8.F#\	co(m)-	8.a#X\	co-	.	.
.	.	.	16ee\	.	.	.	.	.	.
.	.	.	16dd\	.	.	.	.	.	.
.	.	.	16cc#X\JJ	16F#\	-mo-	16b\	-mo-	.	.
!LO:TX:a:t=P:problem=mixed beam	!	!	!	!	!	!	!	!	!
8BB/L	.	8b\L	8dd\L	8BB/	-dat	8b\	-dat	.	.
8B\J	.	8dd\J	8ff#\J	8B\	dis-	8dd\	dis-	.	.
!	!	!	!LO:LB:g=original	!	!	!	!	!	!
=15	=15	=15	=15	=15	=15	=15	=15	=15	=15
8B\L	2	8ee\L	8gg#X\L	8B\	-po-	8cc#X\	-po-	2.ryy	2.ryy
8A\	6	8ff#\	8aa\	16A,\	-net	16dd\	-net	.	.
.	.	.	.	16A\	ser-	16cc#\	Ser-	.	.
8A\	2	8dd\	8ff#\	8A\	-mo-	8b\	-mo-	.	.
!	!	!	!LO:SIC:s=8ggn\:v	!	!	!	!	!	!
8G\	6	8ee\	8gg#\	8G\	-nes	8ee\	-nes	.	.
8G\	2	8cc#X\	8ee\	8G\	Su-	8cc#X\	Su-	.	.
8F#\J	6	8dd\J	8ff#\J	8F#\	-os	8dd\	-os	.	.
=16	=16	=16	=16	=16	=16	=16	=16	=16	=16
8F#\L	2	8b\L	8dd\L	8F#\	in	8b\	in	2.ryy	2.ryy
!	!	!LO:TX:a:t=P:problem=krzyżyk nad nutą	!	!	!	!	!	!	!
8E\J	#6\	8cc#X\	8gg\J	8E\	Ju-	8cc#X\	ju-	.	.
!	!	!	!	!LO:LB:g=original	!	!LO:LB:g=original	!	!	!
16D\LL	.	8.dd\	16ff#\LL	16D\LL	-di-	8.dd\	-di-	.	.
16E\	.	.	16gg\	16E\JJ	.	.	.	.	.
16F#\	.	.	16aa\	16F#\LL	-ci-	.	.	.	.
16G\JJ	.	16dd\Jk	16bb\JJ	16G\JJ	.	16dd\	-ci-	.	.
!LO:LB:g=original	!	!	!	!	!	!	!	!	!
!	!	!LO:TX:a:t=P:problem=krzyżyk nad nutą	!	!	!	!	!	!	!
8A\L	#	8cc#X\L	16ee\LL	8A\	-o,	8cc#X\	-o,	.	.
.	.	.	16aa\	.	.	.	.	.	.
16d\L	.	16ff#\L	16aa\	16d\	Qvi-	16ff#\	qvi-	.	.
16c#X\JJ	.	16ee\JJ	16aa\JJ	16c#X\	-a	16ee\	-a	.	.
=17	=17	=17	=17	=17	=17	=17	=17	=17	=17
8d\L	.	16ff#\LL	16aa\LL	8d\	in	8ff#\	in	2.ryy	2.ryy
.	.	16ff#\	16aa\	.	.	.	.	.	.
!	!	!LO:TX:a:t=P:problem=krzyżyk nad nutą	!	!	!	!	!	!	!
8A\	#	16cc#X\	16aa\	8A\	ae-	8ee\	ae-	.	.
.	.	16cc#\JJ	16aa\JJ	.	.	.	.	.	.
8F#\	.	16dd\LL	16aa\LL	8F#\	-ter-	8dd\	-ter-	.	.
.	.	16dd\	16aa\	.	.	.	.	.	.
8D\J	.	16dd\	16aa\	8D\	-nu(m)	8dd\	-nu(m)	.	.
.	.	16dd\JJ	16aa\JJ	.	.	.	.	.	.
!	!	!LO:TX:a:t=P:problem=krzyżyk nad nutą	!	!	!	!	!	!	!
4AA/	#	8cc#X\L	8aa\L	4AA/	non	4ee\	non	.	.
.	.	8cc#\J	8aa\J	.	.	.	.	.	.
=18	=18	=18	=18	=18	=18	=18	=18	=18	=18
8r	.	8ree	8r	8r	.	8r	.	2.ryy	2.ryy
!LO:TX:a:t=P:problem=mixed beam	!	!	!	!	!	!	!	!	!
8D\L	.	16a\LL	16ff#\LL	8D\	non	8dd\	n(on)	.	.
.	.	16b\JJ	16gg\JJ	.	.	.	.	.	.
!	!	!LO:TX:a:t=P:problem=krzyżyk nad nutą	!	!	!	!	!	!	!
8A\	#	8cc#X\	8aa\L	8A\	co(m)-	8ee\	co(m)-	.	.
8d\	.	4dd/	8dd\J	8d\	-mo-	8ff#\	-mo-	.	.
8A\	4	.	4eeT\	8.A\	-ve-	8.cc#X\	-ve-	.	.
!	!	!LO:TX:a:t=P:problem=krzyżyk nad nutą	!	!	!	!	!	!	!
8AA/J	#	8cc#X\	.	.	.	.	.	.	.
.	.	.	.	16A\	-bi-	16cc#\	-bi-	.	.
=19	=19	=19	=19	=19	=19	=19	=19	=19	=19
!LO:TX:a:t=S&colon;	!	!	!	!	!	!	!	!	!
4D\	.	4dd\	4dd\	4D\	-tur	8dd\	-tur,	2.ryy	2.ryy
.	.	.	.	.	.	16dd\	in	.	.
.	.	.	.	.	.	16dd\	me-	.	.
4.E\	-6	4r	4r	4r	.	8.ccn\	-mo-	.	.
.	.	.	.	.	.	16b\	-ri-	.	.
.	.	4r	4r	4r	.	8cc\	-a	.	.
8F#\	.	.	.	.	.	16b\LL	ae-	.	.
*	*	*	*	*	*	*custos:b	*	*	*
.	.	.	.	.	.	16a\JJ	.	.	.
!	!	!	!	!	!	!LO:LB:g=original	!	!	!
=20	=20	=20	=20	=20	=20	=20	=20	=20	=20
!	!	!LO:N:vis=00	!LO:N:vis=00	!	!	!	!	!	!
4G\	.	0.r	0.r	4r	.	8b\	-ter-	2.ryy	2.ryy
.	.	.	.	.	.	8g\	-na	.	.
8c\L	.	.	.	8r	.	8ee\	e-	.	.
8B\J	.	.	.	16G\	ab	8dd\	-rit	.	.
.	.	.	.	16G\	au-	.	.	.	.
4A\	7:6	.	.	8G\	-di-	4cc\	ju-	.	.
.	.	.	.	8F#\	-ti-	.	.	.	.
=21	=21	=21	=21	=21	=21	=21	=21	=21	=21
8G\L	.	.	.	8B\	-o-	4b\	-stus	2.ryy	2.ryy
*	*	*	*	*custos:G	*	*	*	*	*
8F#\	.	.	.	8A\	-ne	.	.	.	.
!	!	!	!	!LO:LB:g=original	!	!	!	!	!
8E\	.	.	.	8G\	ma-	4r	.	.	.
8D\	.	.	.	8F#\	-la	.	.	.	.
8E\	.	.	.	16G\LL	non	4r	.	.	.
.	.	.	.	16A\JJ	.	.	.	.	.
8D\J	.	.	.	8B\	ti-	.	.	.	.
=22	=22	=22	=22	=22	=22	=22	=22	=22	=22
4C/	7:6	.	.	8B\L	-me-	8r	.	2.ryy	2.ryy
.	.	.	.	8A\J	.	8ee\	Pa-	.	.
4BB/	#	.	.	4B\	-bit	8ee\	-ra-	.	.
.	.	.	.	.	.	16dd#X,\	-tu(m)	.	.
.	.	.	.	.	.	16dd#\	cor	.	.
8E\L	.	.	.	4r	.	8ee\	e-	.	.
8C\J	.	.	.	.	.	16e/	-jus	.	.
.	.	.	.	.	.	16e/	spe-	.	.
=23	=23	=23	=23	=23	=23	=23	=23	=23	=23
8D\L	.	.	.	4r	.	8f#/	-ra-	2.ryy	2.ryy
8G\J	.	.	.	.	.	16g/	-re	.	.
.	.	.	.	.	.	16e/	in	.	.
4D\	.	.	.	8r	.	8.f#/	Do-	.	.
.	.	.	.	4A\	con-	.	.	.	.
.	.	.	.	.	.	16g/	-mi-	.	.
!LO:TX:a:t=P:problem=w b.c. kropka po "8"	!	!	!	!	!	!	!	!	!
4GG/	9:8	.	.	.	.	4g/	-no,	.	.
.	.	.	.	(16G\LL	-fir-	.	.	.	.
!	!	!	!	!LO:TX:a:t=P:problem=pod nutą skreślony tekst "-ma-"	!	!	!	!	!
.	.	.	.	16A\JJ)	.	.	.	.	.
=24	=24	=24	=24	=24	=24	=24	=24	=24	=24
!	!	!LO:N:vis=0	!LO:N:vis=0	!LO:TX:a:t=P:problem=pod nutą skreślony tekst "-tum"	!	!	!	!	!
8G\L	.	1.r	1.r	16B\	-ma-	8r	.	2.ryy	2.ryy
!	!	!	!	!LO:TX:a:t=P:problem=pod nutą skreślony tekst, prawdopodobnie "e(st)"	!	!	!	!	!
.	.	.	.	16B,\	-tu(m)	.	.	.	.
8Fn\J	.	.	.	16A\	e(st)	8dd\	non	.	.
.	.	.	.	16B\	cor	.	.	.	.
4E\	6	.	.	8c\	e-	8g\	co(m)-	.	.
*	*	*	*	*	*	*custos:a	*	*	*
!	!	!	!	!	!	!LO:TX:b:t=Vertatur.	!	!	!
.	.	.	.	8C/	-jus	8cc\	-mo-	.	.
!	!	!	!	!	!	!LO:PB:g=original	!	!	!
4F\	.	.	.	4r	.	8a\	-ve-	.	.
.	.	.	.	.	.	16a\	-bi-	.	.
.	.	.	.	.	.	16a\	-tur,	.	.
=25	=25	=25	=25	=25	=25	=25	=25	=25	=25
8G\L	.	.	.	8A\	do-	8dd\	do-	2.ryy	2.ryy
8F#X\J	.	.	.	16A,\	-nec	16a\	-nec	.	.
.	.	.	.	16A\	des-	16dd\	des-	.	.
4G\	.	.	.	8D\	-pi-	8b\	-pi-	.	.
.	.	.	.	16D\	-ci-	16b\	-ci-	.	.
.	.	.	.	16D\	-at	16b\	-at	.	.
4c\	.	.	.	8E\	in-	8ee\	i-	.	.
.	.	.	.	16Fn\LL	-ni-	16dd\LL	-ni-	.	.
!	!	!	!	!LO:TX:b:t=Volti.	!	!	!	!	!
.	.	.	.	16G\JJ	.	16cc\JJ	.	.	.
!LO:LB:g=original	!	!	!	!	!	!	!	!	!
!	!	!LO:PB:g=original	!	!LO:PB:g=original	!	!	!	!	!
=26	=26	=26	=26	=26	=26	=26	=26	=26	=26
4Fn\	6	4ree	4r	8A\	-mi-	8dd\	-mi-	2.ryy	2.ryy
.	.	.	.	8Fn\	-cos	8a\	-cos	.	.
4G\	.	4ree	4r	4G\	Su-	4b\	Su-	.	.
!LO:TX:a:t=P:problem=mixed beam	!	!	!	!	!	!	!	!	!
8C/L	.	8ree	8rg	8C/	-os.	8cc\	-os.	.	.
!	!	!	!	!	!	!LO:TX:a:t=t.	!	!	!
8c\J	.	8cc\	16ee\LL	8c\	Di-	8ee\	Dis-	.	.
.	.	.	16ffn\JJ	.	.	.	.	.	.
!	!	!	!LO:LB:g=original	!	!	!	!	!	!
=27	=27	=27	=27	=27	=27	=27	=27	=27	=27
!LO:TX:a:t=T.	!	!	!	!	!	!	!	!	!
4G\	.	4b/	8gg\L	4G\	-sper-	4dd\	-per-	2.ryy	2.ryy
.	.	.	16aa\L	.	.	.	.	.	.
.	.	.	16bb\JJ	.	.	.	.	.	.
!	!	!LO:TX:a:t=P:problem=mixed beam	!	!	!	!	!	!	!
4C/	.	8cc\L	8ccc\L	4C/	-sit	4ee\	-sit	.	.
.	.	16e/L	16cc\L	.	.	.	.	.	.
.	.	16d/JJ	16b\JJ	.	.	.	.	.	.
!	!	!LO:TX:a:t=P:problem=mixed beam	!	!	!	!	!	!	!
8r	.	8e/L	8cc\L	8r	.	8r	.	.	.
8c\	.	8ee\J	8gg\J	8c\	de-	8ee\	de-	.	.
=28	=28	=28	=28	=28	=28	=28	=28	=28	=28
8F#X\L	6 5	8dd\L	8aa\L	8F#X\	-dit	8dd\	-dit	2.ryy	2.ryy
8G\J	.	16cc\L	8gg\	8G\	pau-	16cc\L	pau-	.	.
.	.	16b\JJ	.	.	.	16b\J	.	.	.
4A\	7:#6\	4cc\	8gg\	8.A\	-pe-	8.cc\	-pe-	.	.
.	.	.	8ff#\J	.	.	.	.	.	.
.	.	.	.	16A\	-ri-	16b\	-ri-	.	.
8G\L	.	8b/L	8gg\L	8G\	-bus	8b\	-b(us)	.	.
8G\J	.	8b/J	8bb\J	8G\	Ju-	8b\	Ju-	.	.
=29	=29	=29	=29	=29	=29	=29	=29	=29	=29
8F#X\L	#6\	16dd#X\LL	16aa\LL	8F#\	-sti-	8dd#X\	-sti-	2.ryy	2.ryy
.	.	16dd#\	16aa\	.	.	.	.	.	.
8F#\	.	16dd#\	16aa\	16F#\	-ti-	16dd#\	-ti-	.	.
.	.	16dd#\JJ	16aa\JJ	16F#\	-a	16dd#\	-a	.	.
!	!	!	!	!	!	!LO:LB:g=original	!	!	!
8E\	.	16b/LL	16gg\LL	8E\	e-	8ee\	e-	.	.
.	.	16b/	16gg\	.	.	.	.	.	.
8E\	.	16b/	16gg\	8E\	-jus	8ee\	-jus	.	.
.	.	16b/JJ	16gg\JJ	.	.	.	.	.	.
8D#X\	6	8b/L	8ff#\L	8D#X\	ma-	8ff#\	ma-	.	.
8D#\J	.	8f#/J	8b\J	16D#X\	-net	16b\	-net	.	.
.	.	.	.	16D#X\	in	16b\	in	.	.
=30	=30	=30	=30	=30	=30	=30	=30	=30	=30
8E\L	6	8g/L	8cc\L	8E\	Sae-	8cc\	Sae-	2.ryy	2.ryy
8Dn\	6	8f#/	8b\	16Dn\	-cu-	16b\	-cu-	.	.
.	.	.	.	16D\	-lu(m)	16b\	-lum	.	.
!	!	!	!	!LO:LB:g=original	!	!	!	!	!
8E\	6	8g/	8cc\	8E\	Sae-	8cc\	Sae-	.	.
8D\	6	8f#/	8b\	16D\	-cu-	16b\	-cu-	.	.
.	.	.	.	16D\	-li	16b\	-li,	.	.
8C\	6	8e/	8a\	8C/	cor-	8a\	cor-	.	.
8BB\J	6	8d/J	8g\J	8BB/	-nu	8g\	-nu	.	.
=31	=31	=31	=31	=31	=31	=31	=31	=31	=31
!LO:TX:a:t=P:problem=mixed beam	!	!	!LO:TX:a:t=P:problem=mixed beam	!	!	!	!	!	!
8C/L	6	8e/L	8a/L	8C/	e-	8a\	e-	2.ryy	2.ryy
8BB/	6	8d/J	8g/	8BB/	-jus	8g\	-jus	.	.
!	!	!LO:TX:a:t=P:problem=mixed beam	!	!	!	!	!	!	!
8AA/	6	8c/L	8f#/	8AA/	ex-	8f#/	e-	.	.
8A\	.	8cc\J	8ff#\	8A\	-al-	8ff#\	-xal-	.	.
8A\	#4 2	8.f#/L	8dd#X\	8.A\	-ta-	8.dd#X\	-ta-	.	.
8A\J	.	.	8dd#\J	.	.	.	.	.	.
!	!	!LO:N:vis=8	!	!	!	!	!	!	!
.	.	16f#/Jk	.	16A\	-bi-	16dd#\	-bi-	.	.
=32	=32	=32	=32	=32	=32	=32	=32	=32	=32
8G\L	6	8b\L	8ee\L	8G\	-tur	8ee\	-tur	2.ryy	2.ryy
8A\J	.	8cc\J	8ff#\J	8A\	in	8ff#\	in	.	.
*	*	*	*2\right	*	*	*	*	*	*
4B\	4	2f#/	2dd#X\	4B\	glo-	4ee\	glo-	.	.
4BB/	#	.	.	8.BB/	.	8.dd#X\	.	.	.
.	.	.	.	16BB/	-ri-	16dd#\	-ri-	.	.
!	!	!	!LO:LB:g=original	!	!	!	!	!	!
=33	=33	=33	=33	=33	=33	=33	=33	=33	=33
4E\	.	8g\L	8ee\L	8E\	-a.	8ee\	-a,	2.ryy	2.ryy
.	.	8ee\	8gg\J	8E\	Pec-	8ee\	pec-	.	.
4F#\	7:#6\	8ee\	8.aaT\L	4F#\	-ca-	8ee\L	-ca-	.	.
.	.	8dd#X\J	.	.	.	8dd#X\J	.	.	.
.	.	.	32gg\LL	.	.	.	.	.	.
.	.	.	32aa\JJJ	.	.	.	.	.	.
8G\L	6	8ee\L	8bb\L	8G\	-tor	8ee\	-tor	.	.
8E\J	.	8ee\J	8gg\J	8E\	vi-	8ee\	vi-	.	.
!	!	!	!	!	!	!LO:LB:g=original	!	!	!
=34	=34	=34	=34	=34	=34	=34	=34	=34	=34
8B\L	#	16dd#X\LL	16ff#\LL	8B\	-de-	8dd#X\	-de-	2.ryy	2.ryy
.	.	16dd#\	16ff#\	.	.	.	.	.	.
8B\	.	16dd#\	16ff#\	16B,\	-bit,	16dd#\	-bit,	.	.
.	.	16dd#\JJ	16ff#\JJ	16B\	et	16dd#\	et	.	.
!	!	!LO:LB:g=original	!	!	!	!	!	!	!
8B\	.	16dd#\LL	16ff#\LL	8B\	i-	8dd#\	i-	.	.
.	.	16dd#\	16ff#\	.	.	.	.	.	.
8B\J	.	16dd#\	16ff#\	8B\	-ras-	8dd#\	-ras-	.	.
.	.	16dd#\JJ	16ff#\JJ	.	.	.	.	.	.
!LO:LB:g=original	!	!	!	!	!	!	!	!	!
8e\L	.	16ee\LL	16gg\LL	8e\	-ce-	8ee\	-ce-	.	.
.	.	16ee\	16gg\	.	.	.	.	.	.
8E\J	.	16ee\	16gg\	8E\	-tur	8ee\	-tur	.	.
.	.	16ee\JJ	16gg\JJ	.	.	.	.	.	.
!	!	!	!	!LO:LB:g=original	!	!	!	!	!
=35	=35	=35	=35	=35	=35	=35	=35	=35	=35
8E\L	#	16ee\LL	16gg#X\LL	8E\	den-	8b\	den-	2.ryy	2.ryy
.	.	16ee\	16gg#\	.	.	.	.	.	.
8E\	.	16ee\	16gg#\	16E\	-ti-	16b\	-ti-	.	.
.	.	16ee\JJ	16gg#\JJ	16E\	-bus	16b\	-bus	.	.
8E\	.	16ee\LL	16gg#\LL	8E\	Su-	8ee\	Su-	.	.
.	.	16ee\	16gg#\	.	.	.	.	.	.
8E\	.	16ee\	16gg#\	8E\	-is	8dd\	-is	.	.
.	.	16ee\JJ	16gg#\JJ	.	.	.	.	.	.
8D\	#4 2	16ee\LL	16gg#\LL	16D\	fre-	16g#X\	fre-	.	.
.	.	16ee\	16gg#\	16D\	-met,	16g#\	-met	.	.
8D\J	.	16ee\	16gg#\	16D\	et	16b\	et	.	.
!	!	!	!	!LO:TX:a:t=P:problem=po 16D\ dodatkowa nuta 16D\, pod nią tekst "-be" - przepełniona miara taktu	!	!	!	!	!
.	.	16ee\JJ	16gg#\JJ	16D\	ta-	16b\	ta-	.	.
=36	=36	=36	=36	=36	=36	=36	=36	=36	=36
!	!	!	!LO:TX:a:t=P:problem=mixed beam	!	!	!	!	!	!
8C/L	7 #	8ee\L	8aa\L	8C/	-bes-	8a\	-bes-	2.ryy	2.ryy
8C/	.	8ee\	8a/	8C/	-cet	8a,\	-cet,	.	.
8C/	.	8ee\	8aa\	4C/	de-	4a\	de-	.	.
8C/	.	8ee\	8aa\J	.	.	.	.	.	.
8C/	.	8cc\	8aa\L	4C/	-si-	4a\	-si-	.	.
8C/J	.	8cc\J	16bb\L	.	.	.	.	.	.
.	.	.	16ccc\JJ	.	.	.	.	.	.
=37	=37	=37	=37	=37	=37	=37	=37	=37	=37
8BB/L	7 #	8f#/L	8dd#X\L	4.BB/	-de-	4.a\	-de-	2.ryy	2.ryy
8BB/	.	8f#/	8dd#\	.	.	.	.	.	.
8BB/	.	8f#/	8dd#\	.	.	.	.	.	.
8BB/	.	8f#/	8dd#\	16BB/	-ri-	16a\	-ri-	.	.
.	.	.	.	16BB/	-um	16a\	-u(m)	.	.
8E/	.	8g/	8ee\	8E\	pec-	8g\	pec-	.	.
8E/J	.	8g/J	8ee\J	8E\	-ca-	8g\	-ca-	.	.
!	!	!	!LO:LB:g=original	!	!	!	!	!	!
=38	=38	=38	=38	=38	=38	=38	=38	=38	=38
!	!	!	!LO:TX:a:t=P:problem=mixed beam	!	!	!	!	!	!
8A\L	6 5	8f#/L	8ee\L	8A\	-to-	8f#/	-to-	2.ryy	2.ryy
8A\	.	8f#/	8ee\	16A\	-ru(m)	16f#/	-ru(m)	.	.
*	*	*	*	*	*	*custos:f	*	*	*
.	.	.	.	16A\	per-	16f#/	pe-	.	.
!	!	!	!	!	!	!LO:LB:g=original	!	!	!
8B\	#	8f#/	8dd#X\	8B\	-i-	8f#/	-ri-	.	.
8E\	.	8g/	8ee\	8E\	-bit.	8g/	-bit.	.	.
8BB\	#	8d#X/	8f#/	4r	.	4r	.	.	.
8E\J	.	8e/J	8g/J	.	.	.	.	.	.
=39	=39	=39	=39	=39	=39	=39	=39	=39	=39
!LO:TX:a:t=S&colon;	!	!	!LO:TX:a:t=4.	!	!	!	!	!	!
!	!	!LO:N:vis=00	!LO:N:vis=00	!	!	!	!	!	!
4C/	.	0.r	0.r	8G\	Glo-	8ee\	Glo-	2.ryy	2.ryy
.	.	.	.	16G\	-ri-	16ee\	-ri-	.	.
.	.	.	.	16G\	-a	16ee\	-a	.	.
4D/	-4r	.	.	8G\L	Pa-	8ee\L	Pa-	.	.
.	.	.	.	8Fn\J	.	8dd\J	.	.	.
!	!	!	!	!LO:LB:g=original	!	!	!	!	!
8E\L	7	.	.	8Fn\	-tri,	8dd\	-tri,	.	.
8Fn\J	7	.	.	8E\	et	8cc\	et	.	.
=40	=40	=40	=40	=40	=40	=40	=40	=40	=40
4G\	6:5 4:3	.	.	16E\	Fi-	8cc\	Fi-	2.ryy	2.ryy
.	.	.	.	16D\	-li-	.	.	.	.
.	.	.	.	8D\	-o,	16b\	-li-	.	.
.	.	.	.	.	.	16b\	-o,	.	.
8E\L	6	.	.	8E\	et	8cc\	et	.	.
8D\	.	.	.	8Fn\	Spi-	8dd\	Spi-	.	.
8C\	.	.	.	8G\	-ri-	8ee\	-ri-	.	.
8E\J	.	.	.	16Fn\	-tu-	16dd\	-tu-	.	.
.	.	.	.	16G\	-i	16dd\	-i	.	.
=41	=41	=41	=41	=41	=41	=41	=41	=41	=41
8A\L	.	.	.	8A\L	San-	8cc\L	San-	2.ryy	2.ryy
8Fn\J	6	.	.	8Fn\J	.	8dd\J	.	.	.
4G\	.	.	.	4G\	.	8g\L	.	.	.
.	.	.	.	.	.	8b\J	.	.	.
8C/L	.	.	.	8C/	-cto.	4cc\	-cto.	.	.
8C/J	.	.	.	16E\	Si-	.	.	.	.
.	.	.	.	16E\	-cut	.	.	.	.
!LO:LB:g=original	!	!	!	!	!	!	!	!	!
=42	=42	=42	=42	=42	=42	=42	=42	=42	=42
!	!	!	!	!	!	!LO:TX:a:t=1.	!	!	!
8C/L	6	.	.	16A\	e-	2.r	.	2.ryy	2.ryy
.	.	.	.	16A\	-rat	.	.	.	.
8D/	#	.	.	16F#X\	in	.	.	.	.
.	.	.	.	16F#\	prin-	.	.	.	.
8D/	.	.	.	16B\	-ci-	.	.	.	.
.	.	.	.	16B\	-pi-	.	.	.	.
8E/	6	.	.	16G\	-o,	.	.	.	.
.	.	.	.	16G\	et	.	.	.	.
8E/	.	.	.	8c\	nu(n)c	.	.	.	.
8D/J	6	.	.	8B\	et	.	.	.	.
!	!	!	!	!LO:LB:g=original	!	!	!	!	!
=43	=43	=43	=43	=43	=43	=43	=43	=43	=43
4C/	7:6	4ree	4r	8B\L	Sem-	4r	.	2.ryy	2.ryy
.	.	.	.	8A\J	.	.	.	.	.
!LO:TX:a:t=P:problem=mixed beam	!	!	!	!	!	!	!	!	!
8BB/L	#	16ree	16rg	8B\	-per,	8r	.	.	.
.	.	16b\LL	16ff#\LL	.	.	.	.	.	.
!LO:TX:a:t=T.	!	!	!	!	!	!	!	!	!
8B\	.	16cc#X\	16gg\	16B\	et	16dd#X\	Et	.	.
*	*	*	*	*	*	*custos:b	*	*	*
.	.	16dd#X\JJ	16aa\JJ	16B\	in	16dd#\	in	.	.
!	!	!	!	!	!	!LO:LB:g=original	!	!	!
8G\	6	8ee\L	8bb\L	8G\	Sae-	8b\	Sae-	.	.
8E\J	.	8ee\J	8gg\J	16E\	-cu-	16b\	-cu-	.	.
.	.	.	.	16E\	-la	16b\	-la	.	.
=44	=44	=44	=44	=44	=44	=44	=44	=44	=44
8A\L	.	8ee\L	8ccc\L	8A\	Sae-	4.cc\	Sae-	2.ryy	2.ryy
8F#\	.	8ff#\	8aa\	8F#X\	-cu-	.	.	.	.
8D#X\	7	8cc\	8ff#\	8D#X\	-lo-	.	.	.	.
8E\	.	8b\	8gg\	8E\	-rum	8b\	-cu-	.	.
8D#\	6	8b\	8ff#\	8D#X\	a-	8b\	-lo-	.	.
8E\J	6	8cc\J	8gg\J	8E\	-men	8cc\	-rum	.	.
=45	=45	=45	=45	=45	=45	=45	=45	=45	=45
4Dn/	7:6	8cc\L	16ff#\LL	4Dn/	a-	8cc\	A-	2.ryy	2.ryy
.	.	.	16bb\	.	.	.	.	.	.
.	.	8b\	16bb\	.	.	4b\	.	.	.
.	.	.	16ff#\JJ	.	.	.	.	.	.
4C/	7:6	8b\	16ee\LL	4C/	.	.	.	.	.
.	.	.	16aa\	.	.	.	.	.	.
.	.	8a\J	16aa\	.	.	4a\	.	.	.
.	.	.	16ee\JJ	.	.	.	.	.	.
4BB/	7 #	8a/L	8dd#X\L	4BB/	.	.	.	.	.
.	.	16g/L	16ee\L	.	.	16g\LL	.	.	.
.	.	16f#/JJ	16ff#\JJ	.	.	16f#\JJ	.	.	.
!	!	!LO:LB:g=original	!	!	!	!	!	!	!
=46	=46	=46	=46	=46	=46	=46	=46	=46	=46
!LO:TX:a:t=P:problem=mixed beam	!	!LO:TX:a:t=P:problem=mixed beam	!	!	!	!	!	!	!
8E\L	.	8e/L	8gg\L	8E\	-men	8g\	-men	2.ryy	2.ryy
8AA/J	.	8ee\J	8aa\J	8AA,</	.	8cc\	.	.	.
2BB/	#4r	4ee\	2ff#\	2BB/	a-	2f#/	A-	.	.
.	.	4dd#X\	.	.	.	.	.	.	.
=47	=47	=47	=47	=47	=47	=47	=47	=47	=47
*2\right	*	*2\right	*	*2\right	*	*	*	*	*
!LO:TX:a:t=P:problem=nad kreską taktową fermata, nie wyświetla się	!	!	!	!LO:TX:a:t=P:problem=nad i pod kreską taktową fermaty, nie wyświetlają się	!	!	!	!	!
2.E\	.	2.ee\	2.ee\	2.E\	-men.	2.e/	-men	2.ryy	2.ryy
==;	==	==	==	==;;<	==	==	==	==;	==;
*-	*-	*-	*-	*-	*-	*-	*-	*-	*-
!!!system-decoration: [(s1,s2)][(s3,s4)][(s5,s6)]s7
!!!RDF**kern: < = below
!!!ENC: Zofia Niedbalska
!!!END: 2021-01-02
!!!ENC: Anastazja Marusiak
!!!END: 2020-06-24
!!!YEC: Copyright 2022 Narodowy Instytut Fryderyka Chopina (https://polishscores.org)
!!!YEM: License CC-BY-4.0 (https://creativecommons.org/licenses/by/4.0)
